resources/svg/attach.svg

<svg xmlns="http://www.w3.org/2000/svg" viewBox="0 0 15 15" fill="currentColor"><path fill-rule="evenodd" clip-rule="evenodd" d="M7.31802 0.974872C7.94222 0.350671 8.78882 0 9.67157 0C11.5098 0 13 1.49019 13 3.32843C13 4.21118 12.6493 5.05778 12.0251 5.68198L6.26777 11.4393C5.90878 11.7983 5.42189 12 4.91421 12C3.85702 12 3 11.143 3 10.0858C3 9.5781 3.20168 9.09122 3.56066 8.73223L9.14645 3.14645L9.85355 3.85355L4.26777 9.43934C4.09632 9.61079 4 9.84332 4 10.0858C4 10.5907 4.40931 11 4.91421 11C5.15668 11 5.38921 10.9037 5.56066 10.7322L11.318 4.97487C11.7547 4.53821 12 3.94596 12 3.32843C12 2.04247 10.9575 1 9.67157 1C9.05404 1 8.46179 1.24531 8.02513 1.68198L2.09619 7.61091C1.39431 8.31279 1 9.26475 1 10.2574C1 12.3244 2.67564 14 4.74264 14C5.73525 14 6.6872 13.6057 7.38909 12.9038L13.1464 7.14645L13.8536 7.85355L8.09619 13.6109C7.20678 14.5003 6.00047 15 4.74264 15C2.12335 15 0 12.8766 0 10.2574C0 8.99953 0.49967 7.79322 1.38909 6.90381L7.31802 0.974872Z" fill="black"/></svg>

<svg xmlns="http://www.w3.org/2000/svg" viewBox="0 0 15 15" fill="currentColor"><path fill-rule="evenodd" clip-rule="evenodd" d="M7.318.975a3.328 3.328 0 114.707 4.707l-5.757 5.757A1.914 1.914 0 113.56 8.732l5.585-5.586.708.708-5.586 5.585a.914.914 0 101.293 1.293l5.757-5.757a2.328 2.328 0 10-3.293-3.293L2.096 7.611a3.743 3.743 0 005.293 5.293l5.757-5.758.708.708-5.758 5.757A4.743 4.743 0 011.39 6.904L7.318.974z" fill="currentColor"/></svg>
